X: 164
T:Tavol Turkey
M:3/4
L:1/8
R:waltz
Z:bil@blueskiesink.com
K:A
cc c2 A2|cc c2 A2|cc c2 d2|c2 B4|
BB B2 G2|BB B2 G2|BB B2 c2|B2 A4:|!
cB A2 c2|e2 a4|aa a2 e2|c B4|
BA G2 B2|d2 g4|ff e2 f2|1d2 c4:|2 g2 a4||
<end>
<start>
